assets/Woman bowing/Medium/Flat/woman_bowing_flat_medium.svg

<svg width="32" height="32" viewBox="0 0 32 32" fill="none" xmlns="http://www.w3.org/2000/svg">
<path d="M26.9159 19.1883C26.3551 17.8593 25.0532 17 23.6111 17H8.30881C6.86672 17 5.56482 17.8593 5.00401 19.1883L2.25 25.83H7L14.5 30H17.5L25 25.85L29.75 25.8332L26.9159 19.1883Z" fill="#8B62BF"/>
<path d="M14.5538 9H17.4268C20.646 9 23.1216 11.5421 22.7039 14.385L22.3148 20C22.3148 20.5 21 25.25 16 25.25C11 25.25 9.69329 20.5 9.69329 20L9.28686 14.385C8.92011 11.4055 11.3346 9 14.5538 9Z" fill="#C68D7B"/>
<path d="M11.3069 25.6878C11.203 25.6488 11.0888 25.6195 10.9745 25.5902L6.31067 24.1951C6.20681 24.1561 6.09257 24.1268 5.97833 24.0976C5.72903 24.039 5.45892 24 5.18886 24C3.42304 24 2 25.3463 2 26.9951C2 28.6439 3.42304 30 5.17847 30H9C9.63362 29.5415 13 28.8293 13 28.0195C13 26.9561 12.2937 26.0488 11.3069 25.6878Z" fill="#A17FD5"/>
<path d="M20.6931 25.6878C20.797 25.6488 20.9112 25.6195 21.0255 25.5902L25.6893 24.1951C25.7932 24.1561 25.9074 24.1268 26.0217 24.0976C26.271 24.039 26.5411 24 26.8111 24C28.577 24 30 25.3463 30 26.9951C30 28.6439 28.577 30 26.8215 30H23C22.3664 29.5415 19 28.8293 19 28.0195C19 26.9561 19.7063 26.0488 20.6931 25.6878Z" fill="#A17FD5"/>
<path d="M12.71 19.41C13.43 19.41 14.02 19.91 14.39 20.47C14.0541 20.5731 13.7269 20.6659 13.4024 20.7581C12.8767 20.9073 12.3579 21.0545 11.82 21.24L11.21 20.69C10.95 20.47 10.97 20.06 11.25 19.86C11.66 19.57 12.2 19.41 12.71 19.41Z" fill="black"/>
<path d="M19.29 19.41C18.57 19.41 17.98 19.91 17.61 20.47C17.9459 20.5731 18.273 20.6659 18.5975 20.7581C19.1232 20.9073 19.6421 21.0545 20.18 21.24L20.79 20.69C21.05 20.47 21.03 20.06 20.75 19.86C20.34 19.57 19.8 19.41 19.29 19.41Z" fill="black"/>
<path d="M11.2 20.88C11.4 20.11 12.1 19.53 12.94 19.53C13.81 19.53 14.53 20.15 14.68 20.97C14.72 21.15 14.57 21.32 14.39 21.32H11.54C11.32 21.32 11.14 21.1 11.2 20.88Z" fill="white"/>
<path d="M20.8 20.88C20.6 20.11 19.9 19.53 19.06 19.53C18.19 19.53 17.47 20.15 17.32 20.97C17.28 21.15 17.43 21.32 17.61 21.32H20.46C20.68 21.32 20.86 21.1 20.8 20.88Z" fill="white"/>
<path d="M12.0601 21.02C12.0601 20.39 12.5701 19.88 13.2001 19.88C13.8301 19.88 14.3401 20.4 14.3401 21.02C14.3401 21.12 14.3301 21.22 14.3001 21.32H12.1001C12.0801 21.23 12.0601 21.13 12.0601 21.02Z" fill="#7D4533"/>
<path d="M19.9401 21.02C19.9401 20.39 19.4301 19.88 18.8001 19.88C18.1701 19.88 17.6501 20.4 17.6601 21.02C17.6601 21.12 17.6701 21.22 17.7001 21.32H19.9001C19.9201 21.23 19.9401 21.13 19.9401 21.02Z" fill="#7D4533"/>
<path d="M13.2 20.37C13.56 20.37 13.85 20.66 13.85 21.02C13.85 21.13 13.83 21.23 13.78 21.32H12.62C12.58 21.23 12.55 21.13 12.55 21.02C12.55 20.66 12.84 20.37 13.2 20.37Z" fill="black"/>
<path d="M18.79 20.37C18.43 20.37 18.14 20.66 18.14 21.02C18.14 21.13 18.17 21.23 18.21 21.32H19.37C19.41 21.23 19.44 21.13 19.44 21.02C19.44 20.66 19.15 20.37 18.79 20.37Z" fill="black"/>
<path d="M15.52 20.92L14.86 23.06C14.72 23.5 15.05 23.94 15.51 23.94H16.49C16.95 23.94 17.28 23.49 17.14 23.06L16.48 20.92C16.33 20.45 15.66 20.45 15.52 20.92Z" fill="#AB6A55"/>
<path d="M13.0101 20.57C13.0101 20.6805 12.9206 20.77 12.8101 20.77C12.6996 20.77 12.6101 20.6805 12.6101 20.57C12.6101 20.4595 12.6996 20.37 12.8101 20.37C12.9206 20.37 13.0101 20.4595 13.0101 20.57Z" fill="white"/>
<path d="M18.64 20.57C18.64 20.6805 18.5504 20.77 18.44 20.77C18.3295 20.77 18.24 20.6805 18.24 20.57C18.24 20.4595 18.3295 20.37 18.44 20.37C18.5504 20.37 18.64 20.4595 18.64 20.57Z" fill="white"/>
<path d="M11.3354 26.6531C11.1213 26.551 10.8878 26.5 10.6445 26.5C9.72987 26.5102 8.99036 27.2857 9.00009 28.2347L9 30H14.7313C15.1595 30 15.5 29.602 15.5 29.1531C15.5 28.8367 15.3151 28.551 15.0427 28.4184L11.3354 26.6531Z" fill="#C68D7B"/>
<path d="M20.6646 26.6531C20.8787 26.551 21.1122 26.5 21.3555 26.5C22.2701 26.5102 23.0096 27.2857 22.9999 28.2347L23 30H17.2687C16.8405 30 16.5 29.602 16.5 29.1531C16.5 28.8367 16.6849 28.551 16.9573 28.4184L20.6646 26.6531Z" fill="#C68D7B"/>
<path d="M4.91999 16.02C5.98521 15.7734 6.70022 15.1085 7.0746 14.6778C7.1244 14.5881 7.17752 14.5004 7.23382 14.4146L7.24999 14.39C7.68999 13.74 7.90999 12.96 7.90999 12.17V12.16C7.90999 9.87 9.75999 8.01999 12.05 8.01999C12.28 8.01999 12.49 7.91 12.62 7.73L12.6226 7.72658C13.3728 6.67852 14.6016 6 15.9901 6C17.3801 6 18.6101 6.68 19.3601 7.74C19.4901 7.92 19.7001 8.03 19.9301 8.03C22.2201 8.03 24.0701 9.88 24.0701 12.17V12.18C24.0611 12.8928 24.2474 13.5893 24.6072 14.2035L24.61 14.2C24.61 14.2 25.41 15.56 27.07 15.95C28.6943 16.3316 30.1271 19.2982 27.7803 21.2151L26.9159 19.1883C26.581 18.3948 25.982 17.7688 25.2467 17.3931C25.1724 18.9745 23.8737 20.2357 22.2772 20.2499C22.303 20.1334 22.3148 20.0475 22.3148 20L22.3378 19.6688L23 18L22.5228 17H16.8952C15.8247 16.9377 14.8042 16.5865 13.9325 16H13.9243C13.3107 15.5859 12.771 15.0552 12.34 14.4264C12.167 14.1671 11.7815 14.2031 11.6453 14.4725L11.64 14.5063L11.52 14.7962L11.5111 14.821C11.3784 15.1907 11.2045 15.6203 10.9773 16C10.7265 16.419 10.4109 16.7773 10.0143 16.9275C9.91671 16.9651 9.8142 16.99 9.70657 17H9.61057C9.53798 17 9.48066 17.0616 9.4859 17.134L9.69335 20C9.69335 20.0475 9.70515 20.1334 9.73079 20.2499C8.11758 20.2398 6.80643 18.9564 6.75178 17.3541C5.98061 17.7247 5.3507 18.3667 5.00401 19.1883L4.15292 21.2408C1.88947 19.3297 3.31102 16.3974 4.91999 16.02Z" fill="#593B39"/>
<path d="M11.324 18.3459C11.394 18.4359 11.494 18.4859 11.604 18.4859C11.674 18.4859 11.754 18.4659 11.814 18.4159C11.824 18.4059 12.574 17.8459 13.694 17.9759C13.894 17.9959 14.064 17.8559 14.084 17.6659C14.104 17.4759 13.964 17.2959 13.774 17.2759C12.3816 17.1069 11.4343 17.8182 11.3847 17.8554C11.2347 17.9754 11.204 18.1959 11.324 18.3459Z" fill="#593B39"/>
<path d="M20.174 18.4159C20.234 18.4659 20.314 18.4859 20.384 18.4859C20.484 18.4859 20.594 18.4459 20.664 18.3459C20.784 18.1959 20.754 17.9759 20.604 17.8559C20.5544 17.8187 19.6064 17.1069 18.214 17.2759C18.014 17.2959 17.884 17.4759 17.904 17.6659C17.924 17.8559 18.094 17.9859 18.294 17.9759C19.404 17.8459 20.164 18.4059 20.174 18.4159Z" fill="#593B39"/>
<path d="M9.25186 15.8125C9.32392 15.794 9.39272 15.8475 9.39809 15.9217L9.6751 19.7486C8.60523 19.7092 7.75 18.8295 7.75 17.75C7.75 16.8174 8.3883 16.0339 9.25186 15.8125Z" fill="#BB806E"/>
<path d="M22.5227 16.9999L22.3323 19.7482C23.3987 19.7051 24.25 18.8269 24.25 17.7498C24.25 16.9764 23.811 16.3054 23.1684 15.9727C23.0897 15.9319 23.0005 15.9919 22.9984 16.0805C22.9894 16.4664 22.9289 16.9999 22.5227 16.9999Z" fill="#BB806E"/>
<path d="M15.6595 4.7893L14.5378 2.54181C14.4177 2.29097 14.5979 2 14.8783 2H17.1217C17.4021 2 17.5823 2.29097 17.4622 2.54181L16.3405 4.7893C16.1903 5.07023 15.7997 5.07023 15.6595 4.7893Z" fill="#46A4FB"/>
<path d="M10.5122 5.98165L8.1322 5.19165C7.8722 5.10165 7.7922 4.77165 7.9922 4.57165L9.5722 2.99165C9.7722 2.79165 10.1022 2.87165 10.1922 3.14165L10.9822 5.52165C11.0822 5.80165 10.8022 6.08165 10.5122 5.98165Z" fill="#46A4FB"/>
<path d="M23.8607 5.19006L21.4907 5.98006C21.2007 6.08006 20.9207 5.80006 21.0207 5.52006L21.8107 3.14006C21.9007 2.87006 22.2307 2.79006 22.4307 2.99006L24.0107 4.57006C24.2007 4.77006 24.1207 5.10006 23.8607 5.19006Z" fill="#46A4FB"/>
</svg>

<svg xmlns="http://www.w3.org/2000/svg" width="32" height="32" fill="none"><path fill="#8B62BF" d="M26.916 19.188A3.583 3.583 0 0 0 23.61 17H8.31c-1.442 0-2.744.86-3.305 2.188L2.25 25.83H7L14.5 30h3l7.5-4.15 4.75-.017-2.834-6.645Z"/><path fill="#C68D7B" d="M14.554 9h2.873c3.219 0 5.695 2.542 5.277 5.385L22.314 20c0 .5-1.314 5.25-6.314 5.25S9.693 20.5 9.693 20l-.406-5.615C8.92 11.405 11.335 9 14.554 9Z"/><path fill="#A17FD5" d="M11.307 25.688a3.27 3.27 0 0 0-.332-.098L6.31 24.195A3.486 3.486 0 0 0 5.189 24C3.423 24 2 25.346 2 26.995S3.423 30 5.178 30H9c.634-.459 4-1.17 4-1.98 0-1.064-.706-1.971-1.693-2.332ZM20.693 25.688a3.27 3.27 0 0 1 .332-.098l4.664-1.395A3.485 3.485 0 0 1 26.811 24C28.577 24 30 25.346 30 26.995S28.577 30 26.822 30H23c-.634-.459-4-1.17-4-1.98 0-1.064.706-1.971 1.693-2.332Z"/><path fill="#000" d="M12.71 19.41c.72 0 1.31.5 1.68 1.06-.336.103-.663.196-.988.288-.525.15-1.044.297-1.582.482l-.61-.55a.527.527 0 0 1 .04-.83c.41-.29.95-.45 1.46-.45ZM19.29 19.41c-.72 0-1.31.5-1.68 1.06.336.103.663.196.988.288.525.15 1.044.297 1.582.482l.61-.55c.26-.22.24-.63-.04-.83-.41-.29-.95-.45-1.46-.45Z"/><path fill="#fff" d="M11.2 20.88c.2-.77.9-1.35 1.74-1.35.87 0 1.59.62 1.74 1.44.04.18-.11.35-.29.35h-2.85c-.22 0-.4-.22-.34-.44ZM20.8 20.88c-.2-.77-.9-1.35-1.74-1.35-.87 0-1.59.62-1.74 1.44-.04.18.11.35.29.35h2.85c.22 0 .4-.22.34-.44Z"/><path fill="#7D4533" d="M12.06 21.02a1.14 1.14 0 1 1 2.24.3h-2.2a1.36 1.36 0 0 1-.04-.3ZM19.94 21.02c0-.63-.51-1.14-1.14-1.14-.63 0-1.15.52-1.14 1.14 0 .1.01.2.04.3h2.2c.02-.09.04-.19.04-.3Z"/><path fill="#000" d="M13.2 20.37c.36 0 .65.29.65.65 0 .11-.02.21-.07.3h-1.16a.735.735 0 0 1-.07-.3c0-.36.29-.65.65-.65ZM18.79 20.37c-.36 0-.65.29-.65.65 0 .11.03.21.07.3h1.16c.04-.09.07-.19.07-.3 0-.36-.29-.65-.65-.65Z"/><path fill="#AB6A55" d="m15.52 20.92-.66 2.14c-.14.44.19.88.65.88h.98c.46 0 .79-.45.65-.88l-.66-2.14c-.15-.47-.82-.47-.96 0Z"/><path fill="#fff" d="M13.01 20.57a.2.2 0 1 1-.4 0 .2.2 0 0 1 .4 0ZM18.64 20.57a.2.2 0 1 1-.4 0 .2.2 0 0 1 .4 0Z"/><path fill="#C68D7B" d="M11.335 26.653a1.595 1.595 0 0 0-.69-.153c-.915.01-1.655.786-1.645 1.735V30h5.731c.428 0 .769-.398.769-.847a.822.822 0 0 0-.457-.735l-3.708-1.765ZM20.665 26.653c.214-.102.447-.153.69-.153.915.01 1.655.786 1.645 1.735V30h-5.731c-.428 0-.769-.398-.769-.847 0-.316.185-.602.457-.735l3.708-1.765Z"/><path fill="#593B39" d="M4.92 16.02c1.065-.247 1.78-.912 2.155-1.342.05-.09.103-.178.159-.263l.016-.025c.44-.65.66-1.43.66-2.22v-.01c0-2.29 1.85-4.14 4.14-4.14.23 0 .44-.11.57-.29l.003-.003A4.129 4.129 0 0 1 15.99 6c1.39 0 2.62.68 3.37 1.74.13.18.34.29.57.29 2.29 0 4.14 1.85 4.14 4.14v.01c-.009.713.177 1.41.537 2.024l.003-.004s.8 1.36 2.46 1.75c1.624.382 3.057 3.348.71 5.265l-.864-2.027a3.575 3.575 0 0 0-1.67-1.795 3 3 0 0 1-2.969 2.857c.026-.117.038-.203.038-.25l.023-.331L23 18l-.477-1h-5.628a5.922 5.922 0 0 1-2.963-1h-.008a5.967 5.967 0 0 1-1.584-1.574.404.404 0 0 0-.695.046l-.005.034-.12.29-.009.025c-.133.37-.306.8-.534 1.179-.25.419-.566.777-.963.927-.097.038-.2.063-.307.073H9.61a.125.125 0 0 0-.125.134L9.693 20c0 .047.012.133.038.25a3 3 0 0 1-2.98-2.896 3.575 3.575 0 0 0-1.747 1.834l-.851 2.053c-2.264-1.911-.842-4.844.767-5.221Z"/><path fill="#593B39" d="M11.324 18.346a.35.35 0 0 0 .49.07c.01-.01.76-.57 1.88-.44.2.02.37-.12.39-.31a.357.357 0 0 0-.31-.39c-1.392-.17-2.34.542-2.39.58a.35.35 0 0 0-.06.49ZM20.174 18.416c.06.05.14.07.21.07.1 0 .21-.04.28-.14a.35.35 0 0 0-.06-.49c-.05-.037-.998-.75-2.39-.58-.2.02-.33.2-.31.39.02.19.19.32.39.31 1.11-.13 1.87.43 1.88.44Z"/><path fill="#BB806E" d="M9.252 15.813a.119.119 0 0 1 .146.109l.277 3.827a2 2 0 0 1-.423-3.936ZM22.523 17l-.19 2.748a2 2 0 0 0 .835-3.775c-.078-.041-.168.019-.17.107-.009.386-.07.92-.475.92Z"/><path fill="#46A4FB" d="m15.66 4.79-1.122-2.248a.377.377 0 0 1 .34-.542h2.244c.28 0 .46.291.34.542L16.34 4.789a.38.38 0 0 1-.68 0ZM10.512 5.982l-2.38-.79a.373.373 0 0 1-.14-.62l1.58-1.58c.2-.2.53-.12.62.15l.79 2.38c.1.28-.18.56-.47.46ZM23.86 5.19l-2.37.79c-.29.1-.57-.18-.47-.46l.79-2.38c.09-.27.42-.35.62-.15l1.58 1.58c.19.2.11.53-.15.62Z"/></svg>
